;FLAVOR:Marlin
;TIME:2693
;Filament used: 1.0209m
;Layer height: 0.1
;Generated with Cura_SteamEngine 3.6.0
M140 S70
M105
M190 S70
M104 S200
M105
M109 S200
M82 ;absolute extrusion mode
; Ender 3 Custom Start G-code
G28 ; Home all axes
G92 E0 ; Reset Extruder
G1 Z2.0 F3000 ; Move Z Axis up little to prevent scratching of Heat Bed
G1 X0.1 Y20 Z0.3 F5000.0 ; Move to start position
G1 X0.1 Y200.0 Z0.3 F1500.0 E15 ; Draw the first line
G1 X0.4 Y200.0 Z0.3 F5000.0 ; Move to side a little
G1 X0.4 Y20 Z0.3 F1500.0 E30 ; Draw the second line
G92 E0 ; Reset Extruder
G1 Z2.0 F3000 ; Move Z Axis up little to prevent scratching of Heat Bed
; End of custom start GCode
G92 E0
G1 F2400 E-5
;LAYER_COUNT:125
;LAYER:0
M107
M204 S5000
M205 X30 Y30
G0 F3600 X82.631 Y111.033 Z0.2
M204 S500
M205 X20 Y20
;TYPE:SKIRT
G1 F2400 E0
G1 F1800 X83.21 Y110.614 E0.02377
G1 X84.047 Y110.161 E0.05543
G1 X90.563 Y107.239 E0.29294
G1 X91.231 Y106.984 E0.31672
G1 X91.924 Y106.804 E0.34054
G1 X92.981 Y106.682 E0.37593
G1 X97.784 Y106.531 E0.53575
G1 X99.144 Y106.473 E0.58103
G1 X99.859 Y106.482 E0.60481
G1 X100.647 Y106.586 E0.63125
G1 X105.978 Y107.629 E0.81192
G1 X111.239 Y108.38 E0.98868
G1 X116.526 Y108.834 E1.16517
G1 X121.943 Y108.989 E1.34541
G1 X148.339 Y109 E2.22335
G1 X149.053 Y109.04 E2.24713
G1 X149.758 Y109.16 E2.27092
G1 X150.445 Y109.358 E2.2947
G1 X151.106 Y109.631 E2.31848
G1 X151.733 Y109.976 E2.34229
G1 X152.317 Y110.389 E2.36608
G1 X152.851 Y110.864 E2.38985
G1 X153.07 Y111.082 E2.40012
G1 X153.548 Y111.614 E2.42391
G1 X153.964 Y112.196 E2.44771
G1 X154.312 Y112.821 E2.4715
G1 X154.588 Y113.481 E2.49529
G1 X154.789 Y114.168 E2.5191
G1 X154.911 Y114.872 E2.54286
G1 X154.955 Y115.601 E2.56716
G1 X154.965 Y119.335 E2.69135
G1 X154.927 Y120.049 E2.71513
G1 X154.809 Y120.755 E2.73894
G1 X154.614 Y121.443 E2.76272
G1 X154.343 Y122.105 E2.78651
G1 X154 Y122.732 E2.81028
G1 X153.588 Y123.317 E2.83408
G1 X153.302 Y123.655 E2.84881
G1 X153.084 Y123.895 E2.85959
G1 X152.575 Y124.397 E2.88337
G1 X152.012 Y124.839 E2.90718
G1 X151.404 Y125.215 E2.93095
G1 X150.757 Y125.521 E2.95476
G1 X150.081 Y125.753 E2.97853
G1 X149.382 Y125.908 E3.00234
G1 X148.351 Y125.992 E3.03675
G1 X118.664 Y126.01 E4.02414
G1 X113.302 Y126.162 E4.20255
G1 X108.022 Y126.611 E4.3788
G1 X102.749 Y127.362 E4.55595
G1 X99.051 Y128.069 E4.68118
G1 X98.101 Y128.178 E4.71298
G1 X94.503 Y128.32 E4.83274
G1 X94.046 Y128.322 E4.84794
G1 X90.336 Y128.203 E4.9714
G1 X89.623 Y128.14 E4.99521
G1 X88.922 Y127.998 E5.019
G1 X88.241 Y127.779 E5.04279
G1 X87.589 Y127.485 E5.06658
G1 X86.735 Y126.952 E5.10006
G1 X82.63 Y123.916 E5.26988
G1 X82.08 Y123.459 E5.29366
G1 X81.584 Y122.943 E5.31747
G1 X81.149 Y122.376 E5.34124
G1 X80.779 Y121.763 E5.36505
G1 X80.481 Y121.114 E5.3888
G1 X80.256 Y120.434 E5.41263
G1 X80.109 Y119.734 E5.43642
G1 X80.036 Y118.773 E5.46847
G1 X80.035 Y116.239 E5.55275
G1 X80.075 Y115.524 E5.57657
G1 X80.194 Y114.819 E5.60035
G1 X80.391 Y114.132 E5.62412
G1 X80.663 Y113.47 E5.64793
G1 X81.008 Y112.843 E5.67173
G1 X81.421 Y112.259 E5.69552
G1 X81.871 Y111.75 E5.71812
G1 X82.102 Y111.515 E5.72908
G1 X82.631 Y111.033 E5.75288
M204 S5000
M205 X30 Y30
G0 F3600 X82.9 Y111.33
M204 S500
M205 X20 Y20
G1 F1800 X83.464 Y110.927 E5.77593
G1 X84.211 Y110.526 E5.80413
G1 X90.727 Y107.604 E6.04165
G1 X91.374 Y107.358 E6.06467
G1 X92.045 Y107.188 E6.08769
G1 X92.994 Y107.082 E6.11945
G1 X97.808 Y106.931 E6.27965
G1 X99.161 Y106.873 E6.32469
G1 X99.853 Y106.883 E6.34771
G1 X100.57 Y106.979 E6.37177
G1 X105.901 Y108.022 E6.55244
G1 X111.203 Y108.779 E6.73057
G1 X116.481 Y109.232 E6.90677
G1 X121.966 Y109.389 E7.08927
G1 X148.338 Y109.4 E7.96641
G1 X149.03 Y109.44 E7.98946
G1 X149.712 Y109.56 E8.01249
G1 X150.376 Y109.757 E8.03553
G1 X151.012 Y110.03 E8.05855
G1 X151.613 Y110.374 E8.08158
G1 X152.171 Y110.785 E8.10463
G1 X152.569 Y111.148 E8.12255
G1 X152.788 Y111.366 E8.13283
G1 X153.25 Y111.882 E8.15586
G1 X153.649 Y112.448 E8.1789
G1 X153.98 Y113.056 E8.20192
G1 X154.239 Y113.698 E8.22495
G1 X154.423 Y114.366 E8.24799
G1 X154.528 Y115.05 E8.27101
G1 X154.555 Y115.602 E8.28939
G1 X154.565 Y119.336 E8.41358
G1 X154.527 Y120.027 E8.4366
G1 X154.409 Y120.71 E8.45965
G1 X154.214 Y121.374 E8.48267
G1 X153.943 Y122.012 E8.50573
G1 X153.601 Y122.614 E8.52875
G1 X153.006 Y123.386 E8.56117
G1 X152.788 Y123.626 E8.57196
G1 X152.294 Y124.111 E8.59498
G1 X151.747 Y124.536 E8.61802
G1 X151.155 Y124.895 E8.64105
G1 X150.525 Y125.183 E8.66409
G1 X149.866 Y125.397 E8.68713
G1 X149.187 Y125.533 E8.71017
G1 X148.351 Y125.592 E8.73804
G1 X118.688 Y125.61 E9.72464
G1 X113.257 Y125.764 E9.90534
G1 X107.985 Y126.212 E10.08132
G1 X102.68 Y126.968 E10.25955
G1 X98.976 Y127.676 E10.38498
G1 X98.086 Y127.778 E10.41477
G1 X94.488 Y127.92 E10.53454
G1 X94.059 Y127.922 E10.5488
G1 X90.349 Y127.803 E10.67226
G1 X89.659 Y127.741 E10.6953
G1 X88.981 Y127.6 E10.71834
G1 X88.324 Y127.381 E10.74137
G1 X87.696 Y127.089 E10.76441
G1 X86.973 Y126.63 E10.79289
G1 X82.868 Y123.594 E10.96271
G1 X82.336 Y123.151 E10.98573
G1 X81.859 Y122.649 E11.00876
G1 X81.442 Y122.096 E11.0318
G1 X81.092 Y121.498 E11.05485
G1 X80.813 Y120.864 E11.07789
G1 X80.61 Y120.202 E11.10092
G1 X80.483 Y119.522 E11.12392
G1 X80.436 Y118.772 E11.14892
G1 X80.435 Y116.238 E11.2332
G1 X80.475 Y115.547 E11.25622
G1 X80.594 Y114.865 E11.27925
G1 X80.791 Y114.201 E11.30228
G1 X81.063 Y113.564 E11.32532
G1 X81.406 Y112.963 E11.34834
G1 X81.817 Y112.405 E11.37139
G1 X82.156 Y112.03 E11.3882
G1 X82.387 Y111.795 E11.39916
G1 X82.9 Y111.33 E11.42219
M204 S5000
M205 X30 Y30
G0 F3600 X83.169 Y111.627
M204 S500
M205 X20 Y20
G1 F1800 X83.716 Y111.241 E11.44445
G1 X84.375 Y110.891 E11.46927
G1 X90.891 Y107.969 E11.70679
G1 X91.516 Y107.732 E11.72902
G1 X92.166 Y107.572 E11.75129
G1 X93.006 Y107.482 E11.77938
G1 X97.755 Y107.333 E11.93741
G1 X99.178 Y107.272 E11.98479
G1 X99.847 Y107.283 E12.00704
G1 X100.493 Y107.371 E12.02872
G1 X105.846 Y108.418 E12.21014
G1 X111.146 Y109.175 E12.38821
G1 X116.471 Y109.632 E12.56597
G1 X121.955 Y109.789 E12.74844
G1 X148.338 Y109.8 E13.62594
G1 X149.006 Y109.84 E13.6482
G1 X149.664 Y109.96 E13.67045
G1 X150.304 Y110.157 E13.69272
G1 X150.915 Y110.429 E13.71496
G1 X151.489 Y110.772 E13.73721
G1 X152.019 Y111.181 E13.75947
G1 X152.287 Y111.431 E13.77166
G1 X152.506 Y111.649 E13.78194
G1 X152.951 Y112.149 E13.8042
G1 X153.333 Y112.698 E13.82645
G1 X153.647 Y113.288 E13.84868
G1 X153.889 Y113.912 E13.87094
G1 X154.054 Y114.56 E13.89318
G1 X154.141 Y115.224 E13.91545
G1 X154.155 Y115.603 E13.92806
G1 X154.165 Y119.337 E14.05226
G1 X154.127 Y120.005 E14.07451
G1 X154.009 Y120.664 E14.09678
G1 X153.814 Y121.303 E14.119
G1 X153.544 Y121.916 E14.14128
G1 X153.203 Y122.491 E14.16351
G1 X152.71 Y123.117 E14.19002
G1 X152.492 Y123.357 E14.2008
G1 X152.014 Y123.825 E14.22305
G1 X151.483 Y124.232 E14.2453
G1 X150.907 Y124.573 E14.26756
G1 X150.295 Y124.842 E14.2898
G1 X149.655 Y125.037 E14.31205
G1 X148.996 Y125.154 E14.33431
G1 X148.35 Y125.192 E14.35584
G1 X118.676 Y125.21 E15.3428
G1 X113.247 Y125.364 E15.52344
G1 X107.929 Y125.816 E15.70096
G1 X102.614 Y126.573 E15.87952
G1 X98.901 Y127.283 E16.00525
G1 X98.07 Y127.379 E16.03307
G1 X94.472 Y127.521 E16.15284
G1 X94.071 Y127.522 E16.16617
G1 X90.361 Y127.403 E16.28963
G1 X89.695 Y127.342 E16.31188
G1 X89.041 Y127.201 E16.33413
G1 X88.408 Y126.984 E16.35638
G1 X87.806 Y126.693 E16.37862
G1 X87.211 Y126.308 E16.40219
G1 X83.106 Y123.272 E16.57201
G1 X82.593 Y122.843 E16.59425
G1 X82.135 Y122.356 E16.61649
G1 X81.738 Y121.817 E16.63875
G1 X81.408 Y121.235 E16.66101
G1 X81.15 Y120.618 E16.68325
G1 X80.967 Y119.974 E16.70552
G1 X80.862 Y119.314 E16.72774
G1 X80.836 Y118.772 E16.74579
G1 X80.835 Y116.238 E16.83007
G1 X80.875 Y115.57 E16.85233
G1 X80.994 Y114.912 E16.87457
G1 X81.19 Y114.273 E16.8968
G1 X81.462 Y113.661 E16.91908
G1 X81.805 Y113.086 E16.94135
G1 X82.213 Y112.557 E16.96357
G1 X82.441 Y112.31 E16.97475
G1 X82.672 Y112.075 E16.98571
G1 X83.169 Y111.627 E17.00796
M204 S5000
M205 X30 Y30
G0 F3600 X83.437 Y111.925
M204 S500
M205 X20 Y20
G1 F1800 X83.966 Y111.557 E17.02939
G1 X84.538 Y111.256 E17.05089
G1 X91.054 Y108.334 E17.28841
G1 X91.658 Y108.107 E17.30987
G1 X92.285 Y107.957 E17.33131
G1 X93.019 Y107.882 E17.35585
G1 X97.783 Y107.733 E17.51438
G1 X99.195 Y107.672 E17.56139
G1 X99.84 Y107.684 E17.58284
G1 X100.416 Y107.764 E17.60219
G1 X105.768 Y108.811 E17.78357
G1 X111.11 Y109.574 E17.96305
G1 X116.443 Y110.031 E18.14107
G1 X121.942 Y110.189 E18.32405
G1 X148.338 Y110.2 E19.20198
G1 X148.982 Y110.24 E19.22344
G1 X149.615 Y110.36 E19.24487
G1 X150.229 Y110.557 E19.26632
G1 X150.814 Y110.828 E19.28776
G1 X151.36 Y111.17 E19.30919
G1 X152.005 Y111.715 E19.33728
G1 X152.224 Y111.933 E19.34755
G1 X152.651 Y112.415 E19.36897
G1 X153.016 Y112.946 E19.3904
G1 X153.313 Y113.519 E19.41187
G1 X153.536 Y114.124 E19.43331
G1 X153.682 Y114.752 E19.45476
G1 X153.755 Y115.604 E19.4832
G1 X153.765 Y119.338 E19.60739
G1 X153.727 Y119.982 E19.62885
G1 X153.609 Y120.615 E19.65027
G1 X153.414 Y121.23 E19.67172
G1 X153.144 Y121.815 E19.69315
G1 X152.804 Y122.363 E19.7146
G1 X152.414 Y122.848 E19.7353
G1 X152.196 Y123.088 E19.74609
G1 X151.734 Y123.538 E19.76754
G1 X151.22 Y123.926 E19.78896
G1 X150.661 Y124.249 E19.81043
G1 X150.067 Y124.499 E19.83187
G1 X149.447 Y124.674 E19.85329
G1 X148.81 Y124.771 E19.87472
G1 X148.35 Y124.792 E19.89004
G1 X118.665 Y124.81 E20.87737
G1 X113.219 Y124.964 E21.05857
G1 X107.893 Y125.417 E21.23636
G1 X102.562 Y126.177 E21.41546
G1 X98.825 Y126.891 E21.542
G1 X98.054 Y126.979 E21.56781
G1 X94.456 Y127.121 E21.68757
G1 X94.084 Y127.122 E21.69995
G1 X90.374 Y127.003 E21.82341
G1 X89.732 Y126.943 E21.84485
G1 X89.103 Y126.803 E21.86628
G1 X88.496 Y126.587 E21.88771
G1 X87.92 Y126.297 E21.90916
G1 X87.449 Y125.987 E21.92792
G1 X83.344 Y122.951 E22.09773
G1 X82.85 Y122.536 E22.11919
G1 X82.412 Y122.063 E22.14063
G1 X82.035 Y121.54 E22.16208
G1 X81.726 Y120.974 E22.18352
G1 X81.49 Y120.375 E22.20494
G1 X81.329 Y119.75 E22.2264
G1 X81.247 Y119.111 E22.24783
G1 X81.236 Y118.772 E22.25911
G1 X81.235 Y116.238 E22.34339
G1 X81.275 Y115.595 E22.36482
G1 X81.394 Y114.961 E22.38628
G1 X81.59 Y114.347 E22.40771
G1 X81.861 Y113.762 E22.42916
G1 X82.202 Y113.215 E22.4506
G1 X82.727 Y112.591 E22.47772
G1 X82.958 Y112.356 E22.48868
G1 X83.437 Y111.925 E22.51011
M204 S5000
M205 X30 Y30
G0 F3600 X86.741 Y116.193
M204 S500
M205 X20 Y20
;TYPE:SUPPORT
G1 F1800 X90.235 Y116.193 E22.62632
G1 X90.613 Y115.744 E22.64584
G1 X90.445 Y114.792 E22.678
G1 X91.115 Y114.438 E22.7032
G1 X92.468 Y114.461 E22.74821
G1 X92.898 Y114.146 E22.76594
G1 X93.136 Y113.349 E22.7936
G1 X93.243 Y113.269 E22.79804
G1 X93.514 Y113.269 E22.80706
G1 X94.94 Y114.206 E22.86381
G1 X95.464 Y114.19 E22.88125
G1 X96.696 Y113.269 E22.93241
G1 X96.97 Y113.269 E22.94152
G1 X98.564 Y114.32 E23.00502
G1 X99.126 Y114.143 E23.02462
G1 X99.546 Y113.084 E23.06251
G1 X99.874 Y113.146 E23.07361
G1 X99.881 Y115.373 E23.14769
G1 X100.354 Y115.737 E23.16754
G1 X102.674 Y115.121 E23.24737
G1 X102.793 Y115.333 E23.25546
G1 X103.231 Y115.589 E23.27233
G1 X148.259 Y115.59 E24.76997
G1 X148.375 Y115.706 E24.77543
G1 X148.375 Y116.605 E24.80533
G1 X148.389 Y117.043 E24.8199
G1 X148.389 Y117.937 E24.84964
G1 X148.375 Y118.381 E24.86441
G1 X148.375 Y119.294 E24.89478
G1 X148.259 Y119.41 E24.90024
G1 X103.315 Y119.41 E26.39508
G1 X102.876 Y119.659 E26.41187
G1 X102.676 Y119.995 E26.42487
G1 X100.995 Y119.535 E26.48284
G1 X100.506 Y119.665 E26.49967
G1 X99.763 Y120.413 E26.53473
G1 X99.263 Y120.413 E26.55136
G1 X97.784 Y121.596 E26.61435
G1 X97.501 Y121.612 E26.62378
G1 X96.11 Y120.766 E26.67793
G1 X95.589 Y120.79 E26.69528
G1 X94.32 Y121.731 E26.74782
G1 X94.043 Y121.731 E26.75704
G1 X92.471 Y120.699 E26.81958
G1 X91.944 Y120.724 E26.83713
G1 X90.855 Y121.596 E26.88353
G1 X90.569 Y121.612 E26.89306
G1 X90.467 Y121.549 E26.89705
G1 X89.364 Y119.09 E26.98668
G1 X88.93 Y118.809 E27.00388
G1 X86.742 Y118.807 E27.07665
G1 X86.625 Y118.69 E27.08216
G1 X86.625 Y116.309 E27.16135
G1 X86.741 Y116.193 E27.1668
M204 S5000
M205 X30 Y30
G0 F3600 X92.535 Y116.207
M204 S500
M205 X20 Y20
G1 F1800 X92.605 Y117.566 E27.21206
G1 X92.708 Y118.4 E27.24001
G1 X92.822 Y118.976 E27.25954
G1 X93.581 Y119.482 E27.28988
G1 X93.88 Y119.423 E27.30002
G1 X94.132 Y119.42 E27.3084
G1 X94.19 Y119.361 E27.31115
G1 X94.51 Y119.299 E27.322
G1 X95.011 Y118.65 E27.34926
G1 X94.951 Y117.411 E27.39052
G1 X94.782 Y116.188 E27.43159
G1 X94.293 Y115.699 E27.45459
G1 X93.359 Y115.505 E27.48632
G1 X92.535 Y116.207 E27.52232
M204 S5000
M205 X30 Y30
G1 F2400 E22.52232
G0 F3600 X93.425 Y115.764
G0 X96.001 Y116.175
M204 S500
M205 X20 Y20
G1 F2400 E27.52232
G1 F1800 X96.07 Y117.578 E27.56904
G1 X96.172 Y118.407 E27.59682
G1 X96.281 Y118.956 E27.61544
G1 X96.899 Y119.457 E27.6419
G1 X97.813 Y119.445 E27.6723
G1 X98.441 Y118.828 E27.70158
G1 X98.46 Y118.284 E27.71969
G1 X98.415 Y117.432 E27.74806
G1 X98.311 Y116.596 E27.77608
G1 X98.222 Y116.15 E27.79121
G1 X97.769 Y115.682 E27.81287
G1 X96.836 Y115.472 E27.84468
G1 X96.001 Y116.175 E27.88098
M204 S5000
M205 X30 Y30
G0 F3600 X96.012 Y115.905
M204 S500
M205 X20 Y20
G1 F1800 X96.012 Y114.029 E27.94338
M204 S5000
M205 X30 Y30
G0 F3600 X98.679 Y114.493
M204 S500
M205 X20 Y20
G1 F1800 X98.679 Y120.625 E28.14733
M204 S5000
M205 X30 Y30
G0 F3600 X99.875 Y120.015
M204 S500
M205 X20 Y20
G1 F1800 X89.997 Y120.015 E28.47588
M204 S5000
M205 X30 Y30
G0 F3600 X90.678 Y121.406
M204 S500
M205 X20 Y20
G1 F1800 X90.678 Y115.976 E28.65648
M204 S5000
M205 X30 Y30
G0 F3600 X91.084 Y114.681
M204 S500
M205 X20 Y20
G1 F1800 X99.679 Y114.681 E28.94235
M204 S5000
M205 X30 Y30
G0 F3600 X101.346 Y115.68
M204 S500
M205 X20 Y20
G1 F1800 X101.346 Y119.423 E29.06684
M204 S5000
M205 X30 Y30
G0 F3600 X104.013 Y119.21
M204 S500
M205 X20 Y20
G1 F1800 X104.013 Y115.79 E29.18059
M204 S5000
M205 X30 Y30
G0 F3600 X106.68 Y115.79
M204 S500
M205 X20 Y20
G1 F1800 X106.68 Y119.21 E29.29434
M204 S5000
M205 X30 Y30
G0 F3600 X109.347 Y119.21
M204 S500
M205 X20 Y20
G1 F1800 X109.347 Y115.79 E29.40809
M204 S5000
M205 X30 Y30
G0 F3600 X112.014 Y115.79
M204 S500
M205 X20 Y20
G1 F1800 X112.014 Y119.21 E29.52184
M204 S5000
M205 X30 Y30
G0 F3600 X114.681 Y119.21
M204 S500
M205 X20 Y20
G1 F1800 X114.681 Y115.79 E29.63559
M204 S5000
M205 X30 Y30
G0 F3600 X117.348 Y115.79
M204 S500
M205 X20 Y20
G1 F1800 X117.348 Y119.21 E29.74934
M204 S5000
M205 X30 Y30
G0 F3600 X120.015 Y119.21
M204 S500
M205 X20 Y20
G1 F1800 X120.015 Y115.79 E29.86309
M204 S5000
M205 X30 Y30
G0 F3600 X122.682 Y115.79
M204 S500
M205 X20 Y20
G1 F1800 X122.682 Y119.21 E29.97684
M204 S5000
M205 X30 Y30
G0 F3600 X125.349 Y119.21
M204 S500
M205 X20 Y20
G1 F1800 X125.349 Y115.79 E30.09059
M204 S5000
M205 X30 Y30
G0 F3600 X128.016 Y115.79
M204 S500
M205 X20 Y20
G1 F1800 X128.016 Y119.21 E30.20434
M204 S5000
M205 X30 Y30
G0 F3600 X130.683 Y119.21
M204 S500
M205 X20 Y20
G1 F1800 X130.683 Y115.79 E30.31809
M204 S5000
M205 X30 Y30
G0 F3600 X133.35 Y115.79
M204 S500
M205 X20 Y20
G1 F1800 X133.35 Y119.21 E30.43184
M204 S5000
M205 X30 Y30
G0 F3600 X136.017 Y119.21
M204 S500
M205 X20 Y20
G1 F1800 X136.017 Y115.79 E30.54559
M204 S5000
M205 X30 Y30
G0 F3600 X138.684 Y115.79
M204 S500
M205 X20 Y20
G1 F1800 X138.684 Y119.21 E30.65934
M204 S5000
M205 X30 Y30
G0 F3600 X141.351 Y119.21
M204 S500
M205 X20 Y20
G1 F1800 X141.351 Y115.79 E30.77309
M204 S5000
M205 X30 Y30
G0 F3600 X144.018 Y115.79
M204 S500
M205 X20 Y20
G1 F1800 X144.018 Y119.21 E30.88684
M204 S5000
M205 X30 Y30
G0 F3600 X146.685 Y119.21
M204 S500
M205 X20 Y20
G1 F1800 X146.685 Y115.79 E31.00059
M204 S5000
M205 X30 Y30
G0 F3600 X148.189 Y117.348
M204 S500
M205 X20 Y20
G1 F1800 X98.605 Y117.348 E32.64976
M204 S5000
M205 X30 Y30
G1 F2400 E27.64976
G0 F3600 X95.859 Y117.348
M204 S500
M205 X20 Y20
G1 F2400 E32.64976
G1 F1800 X95.143 Y117.348 E32.67357
M204 S5000
M205 X30 Y30
G0 F3600 X96.012 Y118.63
M204 S500
M205 X20 Y20
G1 F1800 X96.012 Y120.57 E32.7381
M204 S5000
M205 X30 Y30
G0 F3600 X93.345 Y121.033
M204 S500
M205 X20 Y20
G1 F1800 X93.345 Y119.565 E32.78692
M204 S5000
